icons/curved-rectangle-aB.svg

<svg width="24" height="24" viewBox="0 0 24 24" fill="none" xmlns="http://www.w3.org/2000/svg">
<path d="M3 15V9C3 6.8 4.8 5 7 5H17C19.2 5 21 6.8 21 9V15C21 17.2 19.2 19 17 19H7C4.7 19 3 17.2 3 15Z" fill="black"/>
<path fill-rule="evenodd" clip-rule="evenodd" d="M7 5.75C5.21421 5.75 3.75 7.21421 3.75 9V15C3.75 16.7981 5.12646 18.25 7 18.25H17C18.7858 18.25 20.25 16.7858 20.25 15V9C20.25 7.21421 18.7858 5.75 17 5.75H7ZM2.25 9C2.25 6.38579 4.38579 4.25 7 4.25H17C19.6142 4.25 21.75 6.38579 21.75 9V15C21.75 17.6142 19.6142 19.75 17 19.75H7C4.27354 19.75 2.25 17.6019 2.25 15V9Z" fill="black"/>
</svg>

<svg xmlns="http://www.w3.org/2000/svg" fill="none" viewBox="0 0 24 24">
  <path fill="#000" d="M3 15V9c0-2.2 1.8-4 4-4h10c2.2 0 4 1.8 4 4v6c0 2.2-1.8 4-4 4H7c-2.3 0-4-1.8-4-4Z"/>
  <path fill="#000" fill-rule="evenodd" d="M7 5.75A3.262 3.262 0 0 0 3.75 9v6c0 1.798 1.376 3.25 3.25 3.25h10A3.262 3.262 0 0 0 20.25 15V9A3.262 3.262 0 0 0 17 5.75H7ZM2.25 9A4.762 4.762 0 0 1 7 4.25h10A4.762 4.762 0 0 1 21.75 9v6A4.762 4.762 0 0 1 17 19.75H7c-2.726 0-4.75-2.148-4.75-4.75V9Z" clip-rule="evenodd"/>
</svg>
